apps/site/public/icons/companies/neon.svg

<svg width="48" height="48" viewBox="0 0 48 48" fill="none" xmlns="http://www.w3.org/2000/svg">
<g clip-path="url(#clip0_4437_8887)">
<path d="M5.04932 11.5843C5.04932 7.97524 7.97502 5.04953 11.5841 5.04953H36.4155C40.0245 5.04953 42.9502 7.97524 42.9502 11.5843V32.7035C42.9502 36.4368 38.2253 38.057 35.9344 35.1102L28.77 25.894V37.0695C28.77 40.3175 26.137 42.9504 22.8891 42.9504H11.5841C7.97502 42.9504 5.04932 40.0247 5.04932 36.4157V11.5843ZM11.5841 10.2778C10.8618 10.2778 10.2775 10.8621 10.2775 11.5832V36.4157C10.2775 37.1379 10.8618 37.7233 11.583 37.7233H23.0849C23.446 37.7233 23.5418 37.4306 23.5418 37.0695V22.0839C23.5418 18.3496 28.2668 16.7293 30.5587 19.6772L37.7231 28.8924V11.5843C37.7231 10.8621 37.7904 10.2778 37.0693 10.2778H11.5841Z" fill="#00E0D9"/>
<path d="M5.04932 11.5843C5.04932 7.97524 7.97502 5.04953 11.5841 5.04953H36.4155C40.0245 5.04953 42.9502 7.97524 42.9502 11.5843V32.7035C42.9502 36.4368 38.2253 38.057 35.9344 35.1102L28.77 25.894V37.0695C28.77 40.3175 26.137 42.9504 22.8891 42.9504H11.5841C7.97502 42.9504 5.04932 40.0247 5.04932 36.4157V11.5843ZM11.5841 10.2778C10.8618 10.2778 10.2775 10.8621 10.2775 11.5832V36.4157C10.2775 37.1379 10.8618 37.7233 11.583 37.7233H23.0849C23.446 37.7233 23.5418 37.4306 23.5418 37.0695V22.0839C23.5418 18.3496 28.2668 16.7293 30.5587 19.6772L37.7231 28.8924V11.5843C37.7231 10.8621 37.7904 10.2778 37.0693 10.2778H11.5841Z" fill="url(#paint0_linear_4437_8887)"/>
<path d="M5.04932 11.5843C5.04932 7.97524 7.97502 5.04953 11.5841 5.04953H36.4155C40.0245 5.04953 42.9502 7.97524 42.9502 11.5843V32.7035C42.9502 36.4368 38.2253 38.057 35.9344 35.1102L28.77 25.894V37.0695C28.77 40.3175 26.137 42.9504 22.8891 42.9504H11.5841C7.97502 42.9504 5.04932 40.0247 5.04932 36.4157V11.5843ZM11.5841 10.2778C10.8618 10.2778 10.2775 10.8621 10.2775 11.5832V36.4157C10.2775 37.1379 10.8618 37.7233 11.583 37.7233H23.0849C23.446 37.7233 23.5418 37.4306 23.5418 37.0695V22.0839C23.5418 18.3496 28.2668 16.7293 30.5587 19.6772L37.7231 28.8924V11.5843C37.7231 10.8621 37.7904 10.2778 37.0693 10.2778H11.5841Z" fill="url(#paint1_linear_4437_8887)" fill-opacity="0.4"/>
<path d="M36.4151 5.04956C40.0241 5.04956 42.9498 7.97527 42.9498 11.5843V32.7035C42.9498 36.4368 38.2249 38.057 35.934 35.1103L28.7696 25.894V37.0695C28.7696 40.3175 26.1366 42.9505 22.8887 42.9505C23.0618 42.9505 23.2278 42.8817 23.3502 42.7593C23.4726 42.6369 23.5414 42.4709 23.5414 42.2977V22.0839C23.5414 18.3496 28.2664 16.7294 30.5583 19.6772L37.7227 28.8924V6.35609C37.7227 5.63492 37.1373 5.04956 36.4151 5.04956Z" fill="#63F655"/>
</g>
<defs>
<linearGradient id="paint0_linear_4437_8887" x1="3795.14" y1="3795.14" x2="462.492" y2="5.04941" gradientUnits="userSpaceOnUse">
<stop stop-color="#62F755"/>
<stop offset="1" stop-color="#8FF986" stop-opacity="0"/>
</linearGradient>
<linearGradient id="paint1_linear_4437_8887" x1="3795.14" y1="3795.14" x2="1543.93" y2="2919.52" gradientUnits="userSpaceOnUse">
<stop stop-opacity="0.9"/>
<stop offset="1" stop-color="#1A1A1A" stop-opacity="0"/>
</linearGradient>
<clipPath id="clip0_4437_8887">
<rect width="37.9009" height="37.9009" fill="white" transform="translate(5.04932 5.04953)"/>
</clipPath>
</defs>
</svg>

<svg xmlns="http://www.w3.org/2000/svg" width="48" height="48" fill="none" viewBox="0 0 48 48"><g clip-path="url(#a)"><path fill="#00e0d9" d="M5.05 11.584a6.535 6.535 0 0 1 6.534-6.534h24.832a6.535 6.535 0 0 1 6.534 6.534v21.12c0 3.733-4.725 5.353-7.016 2.406l-7.164-9.216V37.07a5.88 5.88 0 0 1-5.88 5.88H11.583a6.535 6.535 0 0 1-6.535-6.534zm6.534-1.306c-.722 0-1.306.584-1.306 1.305v24.833c0 .722.584 1.307 1.305 1.307h11.502c.361 0 .457-.292.457-.654V22.085c0-3.734 4.725-5.355 7.017-2.407l7.164 9.215V11.584c0-.722.067-1.306-.654-1.306z"/><path fill="url(#b)" d="M5.05 11.584a6.535 6.535 0 0 1 6.534-6.534h24.832a6.535 6.535 0 0 1 6.534 6.534v21.12c0 3.733-4.725 5.353-7.016 2.406l-7.164-9.216V37.07a5.88 5.88 0 0 1-5.88 5.88H11.583a6.535 6.535 0 0 1-6.535-6.534zm6.534-1.306c-.722 0-1.306.584-1.306 1.305v24.833c0 .722.584 1.307 1.305 1.307h11.502c.361 0 .457-.292.457-.654V22.085c0-3.734 4.725-5.355 7.017-2.407l7.164 9.215V11.584c0-.722.067-1.306-.654-1.306z"/><path fill="url(#c)" fill-opacity=".4" d="M5.05 11.584a6.535 6.535 0 0 1 6.534-6.534h24.832a6.535 6.535 0 0 1 6.534 6.534v21.12c0 3.733-4.725 5.353-7.016 2.406l-7.164-9.216V37.07a5.88 5.88 0 0 1-5.88 5.88H11.583a6.535 6.535 0 0 1-6.535-6.534zm6.534-1.306c-.722 0-1.306.584-1.306 1.305v24.833c0 .722.584 1.307 1.305 1.307h11.502c.361 0 .457-.292.457-.654V22.085c0-3.734 4.725-5.355 7.017-2.407l7.164 9.215V11.584c0-.722.067-1.306-.654-1.306z"/><path fill="#63f655" d="M36.415 5.05a6.535 6.535 0 0 1 6.535 6.534v21.12c0 3.733-4.725 5.353-7.016 2.406l-7.164-9.216V37.07a5.88 5.88 0 0 1-5.881 5.88.653.653 0 0 0 .652-.652V22.084c0-3.734 4.725-5.355 7.017-2.407l7.165 9.215V6.356c0-.721-.586-1.306-1.308-1.306"/></g><defs><linearGradient id="b" x1="3795.14" x2="462.492" y1="3795.14" y2="5.049" gradientUnits="userSpaceOnUse"><stop stop-color="#62f755"/><stop offset="1" stop-color="#8ff986" stop-opacity="0"/></linearGradient><linearGradient id="c" x1="3795.14" x2="1543.93" y1="3795.14" y2="2919.52" gradientUnits="userSpaceOnUse"><stop stop-opacity=".9"/><stop offset="1" stop-color="#1a1a1a" stop-opacity="0"/></linearGradient><clipPath id="a"><path fill="#fff" d="M5.05 5.05h37.9v37.9H5.05z"/></clipPath></defs></svg>
